icon-themes/breeze_svg/cmd/sc_connector.svg

<svg viewBox="0 0 16 16" xmlns="http://www.w3.org/2000/svg">/&gt;<path d="m3.5 2c-.82843 0-1.5.67155-1.5 1.5s.67157 1.5 1.5 1.5c.65584 0 1.20241-.41358 1.40625-1h2.09375v8 1h1.5 2.5.09375c.20384.586412.750412 1 1.40625 1 .828427 0 1.5-.671573 1.5-1.5s-.671573-1.5-1.5-1.5c-.655838 0-1.20241.413588-1.40625 1h-.09375-3v-9h-.5-2.59375c-.20384-.58642-.75041-1-1.40625-1zm0 1c.27614 0 .5.22385.5.5s-.22386.5-.5.5-.5-.22385-.5-.5.22386-.5.5-.5zm9 9c.276142 0 .5.223858.5.5s-.223858.5-.5.5-.5-.223858-.5-.5.223858-.5.5-.5z" fill="#4d4d4d"/></svg>

<svg xmlns="http://www.w3.org/2000/svg" viewBox="0 0 16 16">
     />
 <path 
     style="fill:#4d4d4d" 
     d="M 3.5 2 C 2.67157 2 2 2.67155 2 3.5 C 2 4.32845 2.67157 5 3.5 5 C 4.15584 5 4.70241 4.58642 4.90625 4 L 7 4 L 7 12 L 7 13 L 8.5 13 L 11 13 L 11.09375 13 C 11.29759 13.586412 11.844162 14 12.5 14 C 13.328427 14 14 13.328427 14 12.5 C 14 11.671573 13.328427 11 12.5 11 C 11.844162 11 11.29759 11.413588 11.09375 12 L 11 12 L 8 12 L 8 3 L 7.5 3 L 4.90625 3 C 4.70241 2.41358 4.15584 2 3.5 2 z M 3.5 3 C 3.77614 3 4 3.22385 4 3.5 C 4 3.77615 3.77614 4 3.5 4 C 3.22386 4 3 3.77615 3 3.5 C 3 3.22385 3.22386 3 3.5 3 z M 12.5 12 C 12.776142 12 13 12.223858 13 12.5 C 13 12.776142 12.776142 13 12.5 13 C 12.223858 13 12 12.776142 12 12.5 C 12 12.223858 12.223858 12 12.5 12 z "
     />
 </svg>
